; generated by PrusaSlicer 2.9.2 on 2025-09-23 at 13:36:25 UTC

; 

; external perimeters extrusion width = 0.42mm
; perimeters extrusion width = 0.44mm
; infill extrusion width = 0.44mm
; solid infill extrusion width = 0.44mm
; top infill extrusion width = 0.40mm
; first layer extrusion width = 0.42mm

M201 X500 Y500 Z100 E5000 ; sets maximum accelerations, mm/sec^2
M203 X500 Y500 Z10 E60 ; sets maximum feedrates, mm / sec
M204 P500 R1000 T500 ; sets acceleration (P, T) and retract acceleration (R), mm/sec^2
M205 X8.00 Y8.00 Z0.40 E5.00 ; sets the jerk limits, mm/sec
M205 S0 T0 ; sets the minimum extruding and travel feed rate, mm/sec

; printing object temp.stl id:0 copy 0
; stop printing object temp.stl id:0 copy 0

;TYPE:Custom
M201 X500 Y500 Z100 E5000
M203 X500 Y500 Z10 E60
M204 P500 R1000 T500
M205 X8.00 Y8.00 Z0.40 E5.00
M205 S0 T0
G90 ; use absolute coordinates
M83 ; extruder relative mode
G28 ; home all axis
M104 S150 ; set temporary nozzle temp to prevent oozing during homing and auto bed leveling
M140 S60 ; set final bed temp
G4 S30 ; allow partial nozzle warmup
G29 ; auto bed levelling
G1 Z50 F240
G1 X2.0 Y10 F3000
M104 S210 ; set final nozzle temp
M190 S60 ; wait for bed temp to stabilize
M109 S210 ; wait for nozzle temp to stabilize
G1 Z0.28 F240
G92 E0
G1 X2.0 Y10 E10 F1500 ; prime the nozzle - Adjusted Y coordinate
G1 X2.3 Y75 F5000 ; NOZZLE PRIME FOR LD 2.0 BED
G92 E0
G1 X2.3 Y10 E10 F1200 ; prime the nozzle - Adjusted Y coordinate
G21 ; set units to millimeters
G90 ; use absolute coordinates
M83 ; use relative distances for extrusion
; Filament gcode
M107
;LAYER_CHANGE
;Z:0.2
;HEIGHT:0.2
G1 E-5 F3600
G1 Z.2 F9000
G1 X32.558 Y30.236
G1 Z.2
G1 E5 F2400
M204 P500
;TYPE:Skirt/Brim
;WIDTH:0.42
G1 F1200
G1 X35 Y29.389 E.08104
G1 X45 Y29.389 E.31354
G1 X46.72 Y29.784 E.05533
G1 X48.095 Y30.889 E.05531
G1 X48.943 Y33.331 E.08105
G1 X48.943 Y43.331 E.31354
G1 X48.548 Y45.051 E.05533
G1 X47.423 Y46.442 E.05609
G1 X43.61 Y49.41 E.1515
G1 X42.398 Y50.109 E.04387
G1 X41.213 Y50.483 E.03896
G1 X39.819 Y50.605 E.04387
G1 X38.769 Y50.483 E.03314
G1 X37.584 Y50.109 E.03896
G1 X36.372 Y49.409 E.04388
G1 X32.57 Y46.436 E.15133
G1 X31.459 Y45.065 E.05533
G1 X31.057 Y43.331 E.05581
G1 X31.057 Y33.331 E.31354
G1 X31.452 Y31.611 E.05533
G1 X32.52 Y30.283 E.05343
G1 X32.826 Y30.547 F9000
G1 F1200
G1 X32.925 Y30.432 E.00476
G1 X35 Y29.766 E.06833
G1 X45 Y29.766 E.31354
G1 X46.63 Y30.16 E.05258
G1 X47.899 Y31.256 E.05257
G1 X48.566 Y33.331 E.06834
G1 X48.566 Y43.331 E.31354
G1 X48.171 Y44.961 E.05259
G1 X47.191 Y46.144 E.04817
G1 X43.38 Y49.11 E.15142
G1 X42.254 Y49.761 E.04078
G1 X41.132 Y50.115 E.03689
G1 X39.836 Y50.228 E.04079
G1 X38.85 Y50.115 E.03112
G1 X37.729 Y49.761 E.03686
G1 X36.602 Y49.11 E.04081
G1 X32.802 Y46.139 E.15124
G1 X31.762 Y44.824 E.05257
G1 X31.434 Y43.331 E.04793
G1 X31.434 Y33.331 E.31354
G1 X31.829 Y31.701 E.05259
G1 X32.787 Y30.592 E.04595
G1 X33.078 Y30.866 F9000
G1 F1200
G1 X33.289 Y30.641 E.00967
G1 X35 Y30.143 E.05587
G1 X45 Y30.143 E.31354
G1 X46.535 Y30.537 E.04969
G1 X47.691 Y31.62 E.04967
G1 X48.189 Y33.331 E.05587
G1 X48.189 Y43.331 E.31354
G1 X47.795 Y44.866 E.04969
G1 X46.959 Y45.847 E.04041
G1 X43.151 Y48.811 E.1513
G1 X42.109 Y49.413 E.03773
G1 X41.05 Y49.746 E.03481
G1 X39.852 Y49.851 E.03771
G1 X38.751 Y49.706 E.03482
G1 X37.621 Y49.295 E.0377
G1 X36.831 Y48.811 E.02905
G1 X33.035 Y45.842 E.1511
G1 X32.069 Y44.586 E.04968
G1 X31.811 Y43.331 E.04017
G1 X31.811 Y33.331 E.31354
G1 X32.205 Y31.796 E.04969
G1 X33.037 Y30.909 E.03813
G1 E-3.5 F3600
;WIPE_START
G1 F7200
G1 X33.078 Y30.866 E-.02822
G1 X33.289 Y30.641 E-.14652
G1 X35 Y30.143 E-.84645
G1 X36.008 Y30.143 E-.47881
;WIPE_END
; printing object temp.stl id:0 copy 0
G1 X39.398 Y43.278 F9000
G1 E5 F2400
;TYPE:External perimeter
;WIDTH:0.419999
G1 F1200
G1 X39.642 Y43.162 E.00847
G1 X39.94 Y43.12 E.00944
G1 X40.256 Y43.143 E.00993
G1 X40.512 Y43.222 E.0084
;WIDTH:0.421583
G1 X40.932 Y43.5 E.01586
G1 X41.228 Y43.929 E.01641
;WIDTH:0.419086
G1 X41.368 Y44.421 E.016
;WIDTH:0.418461
G1 X41.348 Y44.796 E.01173
;WIDTH:0.424543
G1 X41.243 Y45.106 E.01039
G1 X41.026 Y45.452 E.01296
;WIDTH:0.417065
G1 X40.659 Y45.747 E.01465
;WIDTH:0.421268
G1 X40.239 Y45.898 E.01404
;WIDTH:0.429576
G1 X39.876 Y45.902 E.01167
G1 X39.53 Y45.84 E.0113
;WIDTH:0.425462
G1 X39.21 Y45.671 E.01151
G1 X38.917 Y45.409 E.0125
;WIDTH:0.417956
G1 X38.728 Y45.095 E.01143
;WIDTH:0.417053
G1 X38.62 Y44.693 E.01295
;WIDTH:0.416718
G1 X38.636 Y44.286 E.01266
;WIDTH:0.419621
G1 X38.707 Y44.036 E.00814
;WIDTH:0.419747
G1 X38.973 Y43.59 E.01627
;WIDTH:0.419999
G1 X39.24 Y43.353 E.01119
G1 X39.343 Y43.304 E.00358
G1 X39.135 Y42.569 F9000
;TYPE:Perimeter
G1 F1200
G1 X39.074 Y42.593 E.00206
G1 X38.977 Y42.481 E.00465
G1 X38.806 Y42.38 E.00623
G1 X38.44 Y42.296 E.01177
G1 X37.401 Y42.269 E.03259
G1 X36.064 Y42.268 E.04192
G1 X36.064 Y34.396 E.24682
G1 X43.936 Y34.396 E.24682
G1 X43.936 Y38.331 E.12338
G1 X43.936 Y42.268 E.12344
G1 X42.587 Y42.269 E.0423
G1 X41.542 Y42.296 E.03278
G1 X41.199 Y42.37 E.011
G1 X40.898 Y42.575 E.01142
G1 X40.46 Y42.417 E.0146
G1 X39.985 Y42.367 E.01498
G1 X39.525 Y42.417 E.01451
G1 X39.191 Y42.547 E.01124
G1 X38.949 Y43.03 F9000
G1 F1200
G1 X38.752 Y42.784 E.00988
G1 X38.65 Y42.723 E.00373
G1 X38.43 Y42.672 E.00708
G1 X37.4 Y42.646 E.03231
G1 X35.687 Y42.645 E.05371
G1 X35.687 Y34.018 E.27049
G1 X44.313 Y34.018 E.27046
G1 X44.313 Y38.331 E.13523
G1 X44.313 Y42.645 E.13526
G1 X42.587 Y42.646 E.05412
G1 X41.552 Y42.672 E.03246
G1 X41.41 Y42.695 E.00451
G1 X41.16 Y42.845 E.00914
G1 X41.018 Y43.064 E.00818
G1 X40.711 Y42.902 E.01088
G1 X40.358 Y42.78 E.01171
G1 X39.962 Y42.743 E.01247
G1 X39.53 Y42.8 E.01366
G1 X38.99 Y43.061 E.01881
G1 X38.603 Y43.206 F9000
;TYPE:External perimeter
G1 F1200
G1 X38.528 Y43.087 E.00441
G1 X38.42 Y43.049 E.00359
G1 X37.4 Y43.023 E.03199
G1 X35.31 Y43.021 E.06553
G1 X35.31 Y33.641 E.2941
G1 X44.69 Y33.641 E.2941
G1 X44.69 Y38.331 E.14705
G1 X44.69 Y43.021 E.14705
G1 X42.587 Y43.023 E.06594
G1 X41.562 Y43.049 E.03215
G1 X41.525 Y43.054 E.00117
G1 X41.402 Y43.147 E.00483
;WIDTH:0.421583
G1 X41.325 Y43.355 E.00698
G1 X41.581 Y43.8 E.01616
;WIDTH:0.41708
G1 X41.725 Y44.3 E.01619
G1 X41.728 Y44.772 E.01468
;WIDTH:0.416845
G1 X41.616 Y45.193 E.01355
;WIDTH:0.418483
G1 X41.352 Y45.651 E.01651
;WIDTH:0.424556
G1 X40.976 Y45.992 E.01611
G1 X40.493 Y46.223 E.01699
;WIDTH:0.417955
G1 X40.063 Y46.286 E.01355
;WIDTH:0.415332
G1 X39.56 Y46.234 E.01566
G1 X39.138 Y46.067 E.01405
;WIDTH:0.425468
G1 X38.738 Y45.771 E.01583
G1 X38.429 Y45.342 E.01682
;WIDTH:0.424592
G1 X38.269 Y44.87 E.01582
G1 X38.24 Y44.388 E.01532
;WIDTH:0.422785
G1 X38.358 Y43.894 E.01604
;WIDTH:0.419365
G1 X38.622 Y43.445 E.0163
;WIDTH:0.419999
G1 X38.648 Y43.276 E.00536
G1 X38.635 Y43.257 E.00072
G1 E-3.5 F3600
;WIPE_START
G1 F7200
G1 X38.603 Y43.206 E-.0286
G1 X38.528 Y43.087 E-.06681
G1 X38.42 Y43.049 E-.05438
G1 X37.4 Y43.023 E-.48466
G1 X35.578 Y43.022 E-.86555
;WIPE_END
G1 X43.031 Y34.516 F9000
G1 E5 F2400
;TYPE:Solid infill
;WIDTH:0.430233
G1 F1200
G1 X43.645 Y35.13 E.02796
G1 X43.645 Y35.678 E.01765
G1 X42.653 Y34.686 E.04518
G1 X42.105 Y34.686 E.01765
G1 X43.645 Y36.226 E.07014
G1 X43.645 Y36.774 E.01765
G1 X41.558 Y34.686 E.09508
G1 X41.01 Y34.686 E.01765
G1 X43.645 Y37.321 E.12001
G1 X43.645 Y37.869 E.01765
G1 X40.462 Y34.686 E.14497
G1 X39.914 Y34.686 E.01765
G1 X43.645 Y38.417 E.16993
G1 X43.645 Y38.965 E.01765
G1 X39.367 Y34.686 E.19486
G1 X38.819 Y34.686 E.01765
G1 X43.645 Y39.512 E.2198
G1 X43.645 Y40.06 E.01765
G1 X38.271 Y34.686 E.24476
G1 X37.723 Y34.686 E.01765
G1 X43.645 Y40.608 E.26972
G1 X43.645 Y41.156 E.01765
G1 X37.176 Y34.686 E.29465
G1 X36.628 Y34.686 E.01765
G1 X43.645 Y41.703 E.31959
G1 X43.645 Y41.978 E.00886
G1 X43.372 Y41.978 E.00879
G1 X36.355 Y34.96 E.31961
G1 X36.355 Y35.508 E.01765
G1 X42.825 Y41.978 E.29468
G1 X42.285 Y41.986 E.01739
G1 X36.355 Y36.056 E.27008
G1 X36.355 Y36.603 E.01762
G1 X41.751 Y42 E.24578
G1 X41.527 Y42.005 E.00722
G1 X41.257 Y42.054 E.00884
G1 X36.355 Y37.151 E.22328
G1 X36.355 Y37.699 E.01765
G1 X40.877 Y42.221 E.20595
G1 X40.851 Y42.239 E.00102
G1 X40.398 Y42.106 E.0152
G1 X40.2 Y42.092 E.00639
G1 X36.355 Y38.247 E.17512
G1 X36.355 Y38.794 E.01762
G1 X39.663 Y42.103 E.15069
G1 X39.361 Y42.154 E.00986
G1 X39.222 Y42.209 E.00481
G1 X36.355 Y39.342 E.13058
G1 X36.355 Y39.89 E.01765
G1 X38.473 Y42.009 E.09649
G1 X37.908 Y41.991 E.01821
G1 X36.355 Y40.438 E.07073
G1 X36.355 Y40.985 E.01762
G1 X37.347 Y41.978 E.0452
G1 X36.799 Y41.978 E.01765
G1 X36.185 Y41.363 E.02799
M106 S255
;LAYER_CHANGE
;Z:0.4
;HEIGHT:0.2
;BEFORE_LAYER_CHANGE
G92 E0
;0.4

G1 E-3.5 F3600
;WIPE_START
G1 F7200
G1 X36.799 Y41.978 E-.41279
G1 X37.347 Y41.978 E-.2603
G1 X36.355 Y40.985 E-.66671
G1 X36.355 Y40.647 E-.1602
;WIPE_END
G1 Z.4 F9000
;AFTER_LAYER_CHANGE
G92 E0
;0.4
M104 S205 ; set temperature
; stop printing object temp.stl id:0 copy 0
G1 X31.057 Y41.363
G1 E5 F2400
;TYPE:Skirt/Brim
;WIDTH:0.42
G1 F1518
G1 X31.057 Y33.331 E.25184
G1 X31.452 Y31.611 E.05533
G1 X32.558 Y30.236 E.05533
G1 X35 Y29.389 E.08104
G1 X45 Y29.389 E.31354
G1 X46.72 Y29.784 E.05533
G1 X48.095 Y30.889 E.05531
G1 X48.943 Y33.331 E.08105
G1 X48.943 Y43.331 E.31354
G1 X48.548 Y45.051 E.05533
G1 X47.423 Y46.442 E.05609
G1 X43.61 Y49.41 E.1515
G1 X42.398 Y50.109 E.04387
G1 X41.213 Y50.483 E.03896
G1 X39.819 Y50.605 E.04387
G1 X38.769 Y50.483 E.03314
G1 X37.584 Y50.109 E.03896
G1 X36.372 Y49.409 E.04388
G1 X32.57 Y46.436 E.15133
G1 X31.459 Y45.065 E.05533
G1 X31.057 Y43.331 E.05581
G1 X31.057 Y41.423 E.05982
G1 X31.434 Y41.423 F9000
G1 F1518
G1 X31.434 Y33.331 E.25372
G1 X31.829 Y31.701 E.05259
G1 X32.925 Y30.432 E.05257
G1 X35 Y29.766 E.06833
G1 X45 Y29.766 E.31354
G1 X46.63 Y30.16 E.05258
G1 X47.899 Y31.256 E.05257
G1 X48.566 Y33.331 E.06834
G1 X48.566 Y43.331 E.31354
G1 X48.171 Y44.961 E.05259
G1 X47.191 Y46.144 E.04817
G1 X43.38 Y49.11 E.15142
G1 X42.254 Y49.761 E.04078
G1 X41.132 Y50.115 E.03689
G1 X39.836 Y50.228 E.04079
G1 X38.85 Y50.115 E.03112
G1 X37.729 Y49.761 E.03686
G1 X36.602 Y49.11 E.04081
G1 X32.802 Y46.139 E.15124
G1 X31.762 Y44.824 E.05257
G1 X31.434 Y43.331 E.04793
G1 X31.434 Y41.483 E.05794
G1 X31.811 Y41.483 F9000
G1 F1518
G1 X31.811 Y33.331 E.2556
G1 X32.205 Y31.796 E.04969
G1 X33.289 Y30.641 E.04967
G1 X35 Y30.143 E.05587
G1 X45 Y30.143 E.31354
G1 X46.535 Y30.537 E.04969
G1 X47.691 Y31.62 E.04967
G1 X48.189 Y33.331 E.05587
G1 X48.189 Y43.331 E.31354
G1 X47.795 Y44.866 E.04969
G1 X46.959 Y45.847 E.04041
G1 X43.151 Y48.811 E.1513
G1 X42.109 Y49.413 E.03773
G1 X41.05 Y49.746 E.03481
G1 X39.852 Y49.851 E.03771
G1 X38.751 Y49.706 E.03482
G1 X37.621 Y49.295 E.0377
G1 X36.831 Y48.811 E.02905
G1 X33.035 Y45.842 E.1511
G1 X32.069 Y44.586 E.04968
G1 X31.811 Y43.331 E.04017
G1 X31.811 Y41.543 E.05606
G1 E-3.5 F3600
;WIPE_START
G1 F7200
G1 X31.811 Y41.483 E-.0285
G1 X31.811 Y38.385 E-1.4715
;WIPE_END
; printing object temp.stl id:0 copy 0
G1 X38.772 Y44.097 F9000
G1 E5 F2400
;TYPE:External perimeter
;WIDTH:0.572291
G1 F1518
G1 X38.949 Y43.742 E.01746
G1 X39.07 Y43.666 E.00629
;WIDTH:0.534218
G1 X39.19 Y43.589 E.00582
;WIDTH:0.496145
G1 X39.311 Y43.513 E.00538
;WIDTH:0.458072
G1 X39.431 Y43.437 E.0049
;WIDTH:0.419999
G1 X39.916 Y43.302 E.01578
G1 X40.446 Y43.388 E.01684
;WIDTH:0.460945
G1 X40.588 Y43.477 E.00583
;WIDTH:0.50189
G1 X40.731 Y43.566 E.00643
;WIDTH:0.542836
G1 X40.874 Y43.655 E.007
;WIDTH:0.583781
G1 X41.017 Y43.744 E.00757
G1 X41.197 Y44.028 E.01512
;WIDTH:0.563645
G1 X41.299 Y44.476 E.01989
;WIDTH:0.56333
G1 X41.229 Y44.966 E.02142
G1 X40.974 Y45.41 E.02216
;WIDTH:0.564354
G1 X40.596 Y45.702 E.02071
G1 X40.116 Y45.846 E.02173
;WIDTH:0.568345
G1 X39.597 Y45.791 E.0228
G1 X39.157 Y45.553 E.02186
;WIDTH:0.571312
G1 X38.841 Y45.165 E.02199
G1 X38.691 Y44.7 E.02147
;WIDTH:0.566427
G1 X38.722 Y44.195 E.02202
;WIDTH:0.572291
G1 X38.745 Y44.151 E.00219
G1 X39.084 Y42.742 F9000
;TYPE:Perimeter
;WIDTH:0.439999
G1 F1518
G1 X39.067 Y42.749 E.00061
G1 X38.997 Y42.65 E.004
G1 X38.658 Y42.413 E.01366
G1 X38.282 Y42.337 E.01267
G1 X35.994 Y42.337 E.07554
G1 X35.994 Y34.326 E.2645
G1 X44.006 Y34.326 E.26453
G1 X44.006 Y38.331 E.13223
G1 X44.006 Y42.337 E.13227
G1 X41.7 Y42.337 E.07614
G1 X41.417 Y42.379 E.00945
G1 X41.133 Y42.519 E.01045
G1 X40.917 Y42.755 E.01056
G1 X40.609 Y42.613 E.0112
G1 X40.069 Y42.528 E.01805
G1 X39.802 Y42.526 E.00882
G1 X39.31 Y42.643 E.0167
G1 X39.139 Y42.718 E.00617
G1 X38.784 Y43.031 F9000
G1 F1518
G1 X38.705 Y42.92 E.0045
G1 X38.539 Y42.795 E.00686
G1 X38.282 Y42.734 E.00872
G1 X35.597 Y42.734 E.08865
G1 X35.597 Y33.928 E.29075
G1 X44.403 Y33.928 E.29075
G1 X44.403 Y38.331 E.14537
G1 X44.403 Y42.734 E.14537
G1 X41.7 Y42.734 E.08925
G1 X41.504 Y42.769 E.00657
G1 X41.257 Y42.942 E.00996
G1 X41.145 Y43.158 E.00803
G1 X41.127 Y43.382 E.00742
G1 X40.956 Y43.236 E.00742
G1 X40.639 Y43.053 E.01209
G1 X40.434 Y42.982 E.00716
G1 X39.828 Y42.924 E.0201
G1 X39.324 Y43.055 E.01719
G1 X38.845 Y43.399 E.01947
G1 X38.798 Y43.088 E.01038
G1 X38.442 Y43.224 F9000
;TYPE:External perimeter
;WIDTH:0.460482
G1 F1518
G1 X38.421 Y43.182 E.00163
;WIDTH:0.419999
G1 X38.282 Y43.121 E.00476
G1 X35.21 Y43.121 E.09632
G1 X35.21 Y33.541 E.30037
G1 X44.79 Y33.541 E.30037
G1 X44.79 Y38.331 E.15019
G1 X44.79 Y43.121 E.15019
G1 X41.7 Y43.121 E.09688
G1 X41.59 Y43.157 E.00363
;WIDTH:0.460945
G1 X41.559 Y43.229 E.00272
;WIDTH:0.50189
G1 X41.528 Y43.301 E.00299
;WIDTH:0.542836
G1 X41.497 Y43.373 E.00326
;WIDTH:0.583781
G1 X41.466 Y43.445 E.00353
G1 X41.625 Y43.704 E.01367
;WIDTH:0.570643
G1 X41.79 Y44.189 E.02248
G1 X41.814 Y44.415 E.00997
;WIDTH:0.568493
G1 X41.781 Y44.943 E.02312
;WIDTH:0.576303
G1 X41.593 Y45.425 E.02295
G1 X41.356 Y45.76 E.0182
;WIDTH:0.563382
G1 X40.993 Y46.073 E.02074
;WIDTH:0.577296
G1 X40.498 Y46.299 E.02418
G1 X40.048 Y46.372 E.02026
;WIDTH:0.571327
G1 X39.55 Y46.32 E.022
;WIDTH:0.573606
G1 X39.105 Y46.144 E.02112
G1 X38.737 Y45.876 E.02009
;WIDTH:0.571312
G1 X38.422 Y45.487 E.02199
;WIDTH:0.573594
G1 X38.218 Y45.016 E.02265
G1 X38.159 Y44.506 E.02265
;WIDTH:0.570632
G1 X38.261 Y43.936 E.02541
;WIDTH:0.572291
G1 X38.485 Y43.488 E.02205
G1 X38.496 Y43.42 E.00303
;WIDTH:0.536628
G1 X38.507 Y43.352 E.00283
;WIDTH:0.500964
G1 X38.469 Y43.277 E.0032
G1 E-3.5 F3600
;WIPE_START
G1 F7200
G1 X38.442 Y43.224 E-.02825
G1 X38.421 Y43.182 E-.0223
G1 X38.282 Y43.121 E-.0721
G1 X35.382 Y43.121 E-1.37735
;WIPE_END
G1 X36.408 Y34.663 F9000
G1 E5 F2400
;TYPE:Solid infill
;WIDTH:0.53634
G1 F1518
G1 X36.364 Y34.62 E.00252
G1 X36.304 Y34.636 E.00255
G1 X36.289 Y34.695 E.0025
G1 X36.332 Y34.739 E.00252
G1 X36.392 Y34.723 E.00255
;WIDTH:0.439999
G1 X37.026 Y34.631 E.02115
G1 X36.3 Y35.357 E.0339
G1 X36.3 Y35.919 E.01856
G1 X37.587 Y34.631 E.06012
G1 X38.149 Y34.631 E.01856
G1 X36.3 Y36.48 E.08634
G1 X36.3 Y37.042 E.01856
G1 X38.711 Y34.631 E.11258
G1 X39.272 Y34.631 E.01852
G1 X36.3 Y37.604 E.1388
G1 X36.3 Y38.165 E.01852
G1 X39.834 Y34.631 E.16501
G1 X40.395 Y34.631 E.01852
G1 X36.3 Y38.727 E.19123
G1 X36.3 Y39.288 E.01852
G1 X40.957 Y34.631 E.21745
G1 X41.518 Y34.631 E.01852
G1 X36.3 Y39.85 E.24367
G1 X36.3 Y40.411 E.01852
G1 X42.08 Y34.631 E.26989
G1 X42.641 Y34.631 E.01852
G1 X36.3 Y40.973 E.29611
G1 X36.3 Y41.534 E.01852
G1 X43.203 Y34.631 E.32232
G1 X43.677 Y34.483 E.0164
;WIDTH:0.38292
G1 X43.838 Y34.494 E.00456
;WIDTH:0.41146
G1 X43.769 Y34.595 E.00375
;WIDTH:0.439999
G1 X43.7 Y34.696 E.00404
G1 X36.364 Y42.031 E.34252
G1 X36.263 Y42.1 E.00404
;WIDTH:0.41146
G1 X36.162 Y42.169 E.00375
;WIDTH:0.38292
G1 X36.152 Y42.008 E.00456
;WIDTH:0.439999
G1 X36.926 Y42.031 E.02557
G1 X43.7 Y35.257 E.3163
G1 X43.7 Y35.819 E.01856
G1 X37.488 Y42.031 E.29006
G1 X37.938 Y42.231 E.01626
;WIDTH:0.38292
G1 X37.897 Y42.242 E.0012
G1 X37.877 Y42.171 E.00209
G1 X37.949 Y42.19 E.00211
;WIDTH:0.41146
G1 X37.999 Y42.111 E.00287
;WIDTH:0.439999
G1 X38.049 Y42.031 E.00311
G1 X43.7 Y36.38 E.26386
G1 X43.7 Y36.942 E.01856
G1 X38.57 Y42.072 E.23954
G1 X39.476 Y42.289 F9000
G1 F1518
G1 X43.7 Y38.065 E.19723
G1 X43.7 Y37.504 E.01852
G1 X38.963 Y42.241 E.22119
