; generated by PrusaSlicer 2.9.2 on 2025-08-29 at 22:45:14 UTC

; 

; external perimeters extrusion width = 0.42mm
; perimeters extrusion width = 0.44mm
; infill extrusion width = 0.44mm
; solid infill extrusion width = 0.44mm
; top infill extrusion width = 0.40mm
; first layer extrusion width = 0.42mm

M201 X500 Y500 Z100 E5000 ; sets maximum accelerations, mm/sec^2
M203 X500 Y500 Z10 E60 ; sets maximum feedrates, mm / sec
M204 P500 R1000 T500 ; sets acceleration (P, T) and retract acceleration (R), mm/sec^2
M205 X8.00 Y8.00 Z0.40 E5.00 ; sets the jerk limits, mm/sec
M205 S0 T0 ; sets the minimum extruding and travel feed rate, mm/sec

; printing object temp_slice_input.stl id:0 copy 0
; stop printing object temp_slice_input.stl id:0 copy 0

;TYPE:Custom
M201 X500 Y500 Z100 E5000
M203 X500 Y500 Z10 E60
M204 P500 R1000 T500
M205 X8.00 Y8.00 Z0.40 E5.00
M205 S0 T0
G90 ; use absolute coordinates
M83 ; extruder relative mode
G28 ; home all axis
M104 S150 ; set temporary nozzle temp to prevent oozing during homing and auto bed leveling
M140 S60 ; set final bed temp
G4 S30 ; allow partial nozzle warmup
G29 ; auto bed levelling
G1 Z50 F240
G1 X2.0 Y10 F3000
M104 S210 ; set final nozzle temp
M190 S60 ; wait for bed temp to stabilize
M109 S210 ; wait for nozzle temp to stabilize
G1 Z0.28 F240
G92 E0
G1 X2.0 Y10 E10 F1500 ; prime the nozzle - Adjusted Y coordinate
G1 X2.3 Y85 F5000 ; prime the nozzle - Adjusted Y coordinate for 80x90 bed
G92 E0
G1 X2.3 Y10 E10 F1200 ; prime the nozzle - Adjusted Y coordinate
G21 ; set units to millimeters
G90 ; use absolute coordinates
M83 ; use relative distances for extrusion
; Filament gcode
M107
;LAYER_CHANGE
;Z:0.2
;HEIGHT:0.2
G1 E-5 F3600
G1 Z.2 F9000
G1 X32.558 Y35.236
G1 Z.2
G1 E5 F2400
M204 P500
;TYPE:Skirt/Brim
;WIDTH:0.42
G1 F1200
G1 X35 Y34.389 E.08104
G1 X45 Y34.389 E.31354
G1 X46.72 Y34.784 E.05533
G1 X48.095 Y35.889 E.05531
G1 X48.943 Y38.331 E.08105
G1 X48.943 Y48.331 E.31354
G1 X48.548 Y50.051 E.05533
G1 X47.423 Y51.442 E.05609
G1 X43.61 Y54.41 E.1515
G1 X42.398 Y55.109 E.04387
G1 X41.213 Y55.483 E.03896
G1 X39.819 Y55.605 E.04387
G1 X38.769 Y55.483 E.03314
G1 X37.584 Y55.109 E.03896
G1 X36.372 Y54.409 E.04388
G1 X32.57 Y51.436 E.15133
G1 X31.459 Y50.065 E.05533
G1 X31.057 Y48.331 E.05581
G1 X31.057 Y38.331 E.31354
G1 X31.452 Y36.611 E.05533
G1 X32.52 Y35.283 E.05343
G1 X32.826 Y35.547 F9000
G1 F1200
G1 X32.925 Y35.432 E.00476
G1 X35 Y34.766 E.06833
G1 X45 Y34.766 E.31354
G1 X46.63 Y35.16 E.05258
G1 X47.899 Y36.256 E.05257
G1 X48.566 Y38.331 E.06834
G1 X48.566 Y48.331 E.31354
G1 X48.171 Y49.961 E.05259
G1 X47.191 Y51.144 E.04817
G1 X43.38 Y54.11 E.15142
G1 X42.254 Y54.761 E.04078
G1 X41.132 Y55.115 E.03689
G1 X39.836 Y55.228 E.04079
G1 X38.85 Y55.115 E.03112
G1 X37.729 Y54.761 E.03686
G1 X36.602 Y54.11 E.04081
G1 X32.802 Y51.139 E.15124
G1 X31.762 Y49.824 E.05257
G1 X31.434 Y48.331 E.04793
G1 X31.434 Y38.331 E.31354
G1 X31.829 Y36.701 E.05259
G1 X32.787 Y35.592 E.04595
G1 X33.078 Y35.866 F9000
G1 F1200
G1 X33.289 Y35.641 E.00967
G1 X35 Y35.143 E.05587
G1 X45 Y35.143 E.31354
G1 X46.535 Y35.537 E.04969
G1 X47.691 Y36.62 E.04967
G1 X48.189 Y38.331 E.05587
G1 X48.189 Y48.331 E.31354
G1 X47.795 Y49.866 E.04969
G1 X46.959 Y50.847 E.04041
G1 X43.151 Y53.811 E.1513
G1 X42.109 Y54.413 E.03773
G1 X41.05 Y54.746 E.03481
G1 X39.852 Y54.851 E.03771
G1 X38.751 Y54.706 E.03482
G1 X37.621 Y54.295 E.0377
G1 X36.831 Y53.811 E.02905
G1 X33.035 Y50.842 E.1511
G1 X32.069 Y49.586 E.04968
G1 X31.811 Y48.331 E.04017
G1 X31.811 Y38.331 E.31354
G1 X32.205 Y36.796 E.04969
G1 X33.037 Y35.909 E.03813
G1 E-3.5 F3600
;WIPE_START
G1 F7200
G1 X33.078 Y35.866 E-.02822
G1 X33.289 Y35.641 E-.14652
G1 X35 Y35.143 E-.84645
G1 X36.008 Y35.143 E-.47881
;WIPE_END
; printing object temp_slice_input.stl id:0 copy 0
G1 X39.398 Y48.278 F9000
G1 E5 F2400
;TYPE:External perimeter
;WIDTH:0.419999
G1 F1200
G1 X39.642 Y48.162 E.00847
G1 X39.94 Y48.12 E.00944
G1 X40.256 Y48.143 E.00993
G1 X40.512 Y48.222 E.0084
;WIDTH:0.421583
G1 X40.932 Y48.5 E.01586
G1 X41.228 Y48.929 E.01641
;WIDTH:0.419086
G1 X41.368 Y49.421 E.016
;WIDTH:0.418461
G1 X41.348 Y49.796 E.01173
;WIDTH:0.424543
G1 X41.243 Y50.106 E.01039
G1 X41.026 Y50.452 E.01296
;WIDTH:0.417065
G1 X40.659 Y50.747 E.01465
;WIDTH:0.421268
G1 X40.239 Y50.898 E.01404
;WIDTH:0.429576
G1 X39.876 Y50.902 E.01167
G1 X39.53 Y50.84 E.0113
;WIDTH:0.425462
G1 X39.21 Y50.671 E.01151
G1 X38.917 Y50.409 E.0125
;WIDTH:0.417956
G1 X38.728 Y50.095 E.01143
;WIDTH:0.417053
G1 X38.62 Y49.693 E.01295
;WIDTH:0.416718
G1 X38.636 Y49.286 E.01266
;WIDTH:0.419621
G1 X38.707 Y49.036 E.00814
;WIDTH:0.419747
G1 X38.973 Y48.59 E.01627
;WIDTH:0.419999
G1 X39.24 Y48.353 E.01119
G1 X39.343 Y48.304 E.00358
G1 X39.135 Y47.569 F9000
;TYPE:Perimeter
G1 F1200
G1 X39.074 Y47.593 E.00206
G1 X38.977 Y47.481 E.00465
G1 X38.806 Y47.38 E.00623
G1 X38.44 Y47.296 E.01177
G1 X37.401 Y47.269 E.03259
G1 X36.064 Y47.268 E.04192
G1 X36.064 Y39.396 E.24682
G1 X43.936 Y39.396 E.24682
G1 X43.936 Y43.331 E.12338
G1 X43.936 Y47.268 E.12344
G1 X42.587 Y47.269 E.0423
G1 X41.542 Y47.296 E.03278
G1 X41.199 Y47.37 E.011
G1 X40.898 Y47.575 E.01142
G1 X40.46 Y47.417 E.0146
G1 X39.985 Y47.367 E.01498
G1 X39.525 Y47.417 E.01451
G1 X39.191 Y47.547 E.01124
G1 X38.949 Y48.03 F9000
G1 F1200
G1 X38.752 Y47.784 E.00988
G1 X38.65 Y47.723 E.00373
G1 X38.43 Y47.672 E.00708
G1 X37.4 Y47.646 E.03231
G1 X35.687 Y47.645 E.05371
G1 X35.687 Y39.018 E.27049
G1 X44.313 Y39.018 E.27046
G1 X44.313 Y43.331 E.13523
G1 X44.313 Y47.645 E.13526
G1 X42.587 Y47.646 E.05412
G1 X41.552 Y47.672 E.03246
G1 X41.41 Y47.695 E.00451
G1 X41.16 Y47.845 E.00914
G1 X41.018 Y48.064 E.00818
G1 X40.711 Y47.902 E.01088
G1 X40.358 Y47.78 E.01171
G1 X39.962 Y47.743 E.01247
G1 X39.53 Y47.8 E.01366
G1 X38.99 Y48.061 E.01881
G1 X38.603 Y48.206 F9000
;TYPE:External perimeter
G1 F1200
G1 X38.528 Y48.087 E.00441
G1 X38.42 Y48.049 E.00359
G1 X37.4 Y48.023 E.03199
G1 X35.31 Y48.021 E.06553
G1 X35.31 Y38.641 E.2941
G1 X44.69 Y38.641 E.2941
G1 X44.69 Y43.331 E.14705
G1 X44.69 Y48.021 E.14705
G1 X42.587 Y48.023 E.06594
G1 X41.562 Y48.049 E.03215
G1 X41.525 Y48.054 E.00117
G1 X41.402 Y48.147 E.00483
;WIDTH:0.421583
G1 X41.325 Y48.355 E.00698
G1 X41.581 Y48.8 E.01616
;WIDTH:0.41708
G1 X41.725 Y49.3 E.01619
G1 X41.728 Y49.772 E.01468
;WIDTH:0.416845
G1 X41.616 Y50.193 E.01355
;WIDTH:0.418483
G1 X41.352 Y50.651 E.01651
;WIDTH:0.424556
G1 X40.976 Y50.992 E.01611
G1 X40.493 Y51.223 E.01699
;WIDTH:0.417955
G1 X40.063 Y51.286 E.01355
;WIDTH:0.415332
G1 X39.56 Y51.234 E.01566
G1 X39.138 Y51.067 E.01405
;WIDTH:0.425468
G1 X38.738 Y50.771 E.01583
G1 X38.429 Y50.342 E.01682
;WIDTH:0.424592
G1 X38.269 Y49.87 E.01582
G1 X38.24 Y49.388 E.01532
;WIDTH:0.422785
G1 X38.358 Y48.894 E.01604
;WIDTH:0.419365
G1 X38.622 Y48.445 E.0163
;WIDTH:0.419999
G1 X38.648 Y48.276 E.00536
G1 X38.635 Y48.257 E.00072
G1 E-3.5 F3600
;WIPE_START
G1 F7200
G1 X38.603 Y48.206 E-.0286
G1 X38.528 Y48.087 E-.06681
G1 X38.42 Y48.049 E-.05438
G1 X37.4 Y48.023 E-.48466
G1 X35.578 Y48.022 E-.86555
;WIPE_END
G1 X43.031 Y39.516 F9000
G1 E5 F2400
;TYPE:Solid infill
;WIDTH:0.430233
G1 F1200
G1 X43.645 Y40.13 E.02796
G1 X43.645 Y40.678 E.01765
G1 X42.653 Y39.686 E.04518
G1 X42.105 Y39.686 E.01765
G1 X43.645 Y41.226 E.07014
G1 X43.645 Y41.774 E.01765
G1 X41.558 Y39.686 E.09508
G1 X41.01 Y39.686 E.01765
G1 X43.645 Y42.321 E.12001
G1 X43.645 Y42.869 E.01765
G1 X40.462 Y39.686 E.14497
G1 X39.914 Y39.686 E.01765
G1 X43.645 Y43.417 E.16993
G1 X43.645 Y43.965 E.01765
G1 X39.367 Y39.686 E.19486
G1 X38.819 Y39.686 E.01765
G1 X43.645 Y44.512 E.2198
G1 X43.645 Y45.06 E.01765
G1 X38.271 Y39.686 E.24476
G1 X37.723 Y39.686 E.01765
G1 X43.645 Y45.608 E.26972
G1 X43.645 Y46.156 E.01765
G1 X37.176 Y39.686 E.29465
G1 X36.628 Y39.686 E.01765
G1 X43.645 Y46.703 E.31959
G1 X43.645 Y46.978 E.00886
G1 X43.372 Y46.978 E.00879
G1 X36.355 Y39.96 E.31961
G1 X36.355 Y40.508 E.01765
G1 X42.825 Y46.978 E.29468
G1 X42.285 Y46.986 E.01739
G1 X36.355 Y41.056 E.27008
G1 X36.355 Y41.603 E.01762
G1 X41.751 Y47 E.24578
G1 X41.527 Y47.005 E.00722
G1 X41.257 Y47.054 E.00884
G1 X36.355 Y42.151 E.22328
G1 X36.355 Y42.699 E.01765
G1 X40.877 Y47.221 E.20595
G1 X40.851 Y47.239 E.00102
G1 X40.398 Y47.106 E.0152
G1 X40.2 Y47.092 E.00639
G1 X36.355 Y43.247 E.17512
G1 X36.355 Y43.794 E.01762
G1 X39.663 Y47.103 E.15069
G1 X39.361 Y47.154 E.00986
G1 X39.222 Y47.209 E.00481
G1 X36.355 Y44.342 E.13058
G1 X36.355 Y44.89 E.01765
G1 X38.473 Y47.009 E.09649
G1 X37.908 Y46.991 E.01821
G1 X36.355 Y45.438 E.07073
G1 X36.355 Y45.985 E.01762
G1 X37.347 Y46.978 E.0452
G1 X36.799 Y46.978 E.01765
G1 X36.185 Y46.363 E.02799
M106 S255
;LAYER_CHANGE
;Z:0.48
;HEIGHT:0.28
;BEFORE_LAYER_CHANGE
G92 E0
;0.48

G1 E-3.5 F3600
;WIPE_START
G1 F7200
G1 X36.799 Y46.978 E-.41279
G1 X37.347 Y46.978 E-.2603
G1 X36.355 Y45.985 E-.66671
G1 X36.355 Y45.647 E-.1602
;WIPE_END
G1 Z.48 F9000
;AFTER_LAYER_CHANGE
G92 E0
;0.48
M104 S205 ; set temperature
; stop printing object temp_slice_input.stl id:0 copy 0
G1 X31.057 Y46.363
G1 E5 F2400
;TYPE:Skirt/Brim
;WIDTH:0.42
G1 F1615
G1 X31.057 Y38.331 E.33652
G1 X31.452 Y36.611 E.07394
G1 X32.558 Y35.236 E.07393
G1 X35 Y34.389 E.10829
G1 X45 Y34.389 E.41897
G1 X46.72 Y34.784 E.07394
G1 X48.095 Y35.889 E.07391
G1 X48.943 Y38.331 E.10831
G1 X48.943 Y48.331 E.41897
G1 X48.548 Y50.051 E.07394
G1 X47.423 Y51.442 E.07495
G1 X43.61 Y54.41 E.20245
G1 X42.398 Y55.109 E.05862
G1 X41.213 Y55.483 E.05206
G1 X39.819 Y55.605 E.05863
G1 X38.769 Y55.483 E.04429
G1 X37.584 Y55.109 E.05206
G1 X36.372 Y54.409 E.05864
G1 X32.57 Y51.436 E.20221
G1 X31.459 Y50.065 E.07393
G1 X31.057 Y48.331 E.07458
G1 X31.057 Y46.423 E.07994
G1 X31.434 Y46.423 F9000
G1 F1615
G1 X31.434 Y38.331 E.33903
G1 X31.829 Y36.701 E.07027
G1 X32.925 Y35.432 E.07025
G1 X35 Y34.766 E.09131
G1 X45 Y34.766 E.41897
G1 X46.63 Y35.16 E.07026
G1 X47.899 Y36.256 E.07025
G1 X48.566 Y38.331 E.09132
G1 X48.566 Y48.331 E.41897
G1 X48.171 Y49.961 E.07027
G1 X47.191 Y51.144 E.06436
G1 X43.38 Y54.11 E.20233
G1 X42.254 Y54.761 E.05449
G1 X41.132 Y55.115 E.04929
G1 X39.836 Y55.228 E.05451
G1 X38.85 Y55.115 E.04158
G1 X37.729 Y54.761 E.04925
G1 X36.602 Y54.11 E.05453
G1 X32.802 Y51.139 E.2021
G1 X31.762 Y49.824 E.07024
G1 X31.434 Y48.331 E.06404
G1 X31.434 Y46.483 E.07743
G1 X31.811 Y46.483 F9000
G1 F1615
G1 X31.811 Y38.331 E.34155
G1 X32.205 Y36.796 E.0664
G1 X33.289 Y35.641 E.06637
G1 X35 Y35.143 E.07466
G1 X45 Y35.143 E.41897
G1 X46.535 Y35.537 E.0664
G1 X47.691 Y36.62 E.06637
G1 X48.189 Y38.331 E.07466
G1 X48.189 Y48.331 E.41897
G1 X47.795 Y49.866 E.0664
G1 X46.959 Y50.847 E.054
G1 X43.151 Y53.811 E.20218
G1 X42.109 Y54.413 E.05042
G1 X41.05 Y54.746 E.04651
G1 X39.852 Y54.851 E.05039
G1 X38.751 Y54.706 E.04653
G1 X37.621 Y54.295 E.05038
G1 X36.831 Y53.811 E.03882
G1 X33.035 Y50.842 E.20191
G1 X32.069 Y49.586 E.06639
G1 X31.811 Y48.331 E.05368
G1 X31.811 Y46.543 E.07491
G1 E-3.5 F3600
;WIPE_START
G1 F7200
G1 X31.811 Y46.483 E-.0285
G1 X31.811 Y43.385 E-1.4715
;WIPE_END
; printing object temp_slice_input.stl id:0 copy 0
G1 X38.84 Y49.123 F9000
G1 E5 F2400
;TYPE:External perimeter
;WIDTH:0.42
G1 F1615
G1 X38.853 Y49.053 E.00298
G1 X39.137 Y48.643 E.0209
G1 X39.5 Y48.404 E.01821
G1 X39.973 Y48.303 E.02026
G1 X40.451 Y48.392 E.02037
G1 X40.889 Y48.687 E.02213
G1 X41.129 Y49.053 E.01834
G1 X41.232 Y49.564 E.02184
G1 X41.12 Y50.059 E.02126
G1 X40.838 Y50.444 E.01999
G1 X40.394 Y50.715 E.02179
G1 X39.952 Y50.779 E.01871
G1 X39.44 Y50.651 E.02211
G1 X39.093 Y50.395 E.01807
G1 X38.853 Y50.029 E.01834
G1 X38.753 Y49.58 E.01927
G1 X38.829 Y49.181 E.01702
G1 X39.08 Y47.78 F9000
;TYPE:Perimeter
;WIDTH:0.44
G1 F1615
G1 X39.065 Y47.787 E.00073
G1 X38.973 Y47.663 E.00683
G1 X38.705 Y47.466 E.01471
G1 X38.297 Y47.372 E.01852
G1 X35.96 Y47.372 E.10336
G1 X35.96 Y39.291 E.35739
G1 X44.04 Y39.291 E.35734
G1 X44.04 Y43.331 E.17867
G1 X44.04 Y47.372 E.17872
G1 X41.685 Y47.372 E.10415
G1 X41.416 Y47.411 E.01202
G1 X41.127 Y47.558 E.01434
G1 X40.921 Y47.801 E.01409
G1 X40.616 Y47.651 E.01503
G1 X40.085 Y47.562 E.02381
G1 X39.825 Y47.559 E.0115
G1 X39.324 Y47.675 E.02274
G1 X39.135 Y47.756 E.00909
G1 X38.779 Y48.047 F9000
G1 F1615
G1 X38.774 Y48.027 E.00091
G1 X38.697 Y47.924 E.00569
G1 X38.538 Y47.807 E.00873
G1 X38.297 Y47.751 E.01094
G1 X35.58 Y47.751 E.12016
G1 X35.58 Y38.911 E.39095
G1 X44.42 Y38.911 E.39095
G1 X44.42 Y43.331 E.19548
G1 X44.42 Y47.751 E.19548
G1 X41.685 Y47.751 E.12096
G1 X41.416 Y47.822 E.0123
G1 X41.245 Y47.971 E.01003
G1 X41.14 Y48.275 E.01422
;WIDTH:0.43242
G1 X41.181 Y48.482 E.00915
G1 X41.035 Y48.329 E.00917
;WIDTH:0.44
G1 X40.65 Y48.08 E.02028
G1 X40.437 Y48 E.01006
G1 X39.85 Y47.94 E.0261
G1 X39.34 Y48.067 E.02324
G1 X38.928 Y48.344 E.02196
;WIDTH:0.428998
G1 X38.801 Y48.483 E.00809
G1 X38.841 Y48.299 E.00809
;WIDTH:0.44
G1 X38.793 Y48.105 E.00884
G1 E-3.5 F3600
;WIPE_START
G1 F7200
G1 X38.779 Y48.047 E-.02834
G1 X38.774 Y48.027 E-.00979
G1 X38.697 Y47.924 E-.06109
G1 X38.538 Y47.807 E-.09377
G1 X38.297 Y47.751 E-.11752
G1 X35.793 Y47.751 E-1.18949
;WIPE_END
G1 X41.228 Y48.565 F9000
G1 E5 F2400
;WIDTH:0.395517
G1 F1615
G1 X41.454 Y48.981 E.01849
;WIDTH:0.366073
G1 X41.56 Y49.519 E.01953
;WIDTH:0.394033
G1 X41.505 Y49.935 E.01631
G1 X41.352 Y50.326 E.01632
;WIDTH:0.378611
G1 X41.053 Y50.698 E.0177
;WIDTH:0.364059
G1 X40.63 Y50.97 E.0178
;WIDTH:0.378731
G1 X40.397 Y51.059 E.00925
G1 X39.924 Y51.111 E.01765
;WIDTH:0.36411
G1 X39.432 Y51.003 E.01783
;WIDTH:0.378751
G1 X39.205 Y50.901 E.00923
G1 X38.821 Y50.586 E.01842
;WIDTH:0.364605
G1 X38.559 Y50.184 E.01701
;WIDTH:0.365929
G1 X38.428 Y49.652 E.01951
G1 X38.428 Y49.43 E.0079
;WIDTH:0.368995
G1 X38.545 Y48.916 E.01896
;WIDTH:0.395489
G1 X38.754 Y48.565 E.01595
G1 X38.447 Y48.225 F9000
;TYPE:External perimeter
;WIDTH:0.42
G1 F1615
G1 X38.428 Y48.178 E.00212
G1 X38.297 Y48.121 E.00599
G1 X35.21 Y48.121 E.12934
G1 X35.21 Y38.541 E.40138
G1 X44.79 Y38.541 E.40138
G1 X44.79 Y43.331 E.20069
G1 X44.79 Y48.121 E.20069
G1 X41.685 Y48.121 E.13009
G1 X41.597 Y48.144 E.00381
G1 X41.506 Y48.293 E.00731
G1 X41.689 Y48.669 E.01752
G1 X41.861 Y49.165 E.022
G1 X41.892 Y49.593 E.01798
G1 X41.847 Y49.995 E.01695
G1 X41.692 Y50.391 E.01782
G1 X41.411 Y50.806 E.021
G1 X40.983 Y51.17 E.02354
G1 X40.593 Y51.345 E.01791
G1 X40.101 Y51.44 E.02099
G1 X39.541 Y51.395 E.02354
G1 X39.12 Y51.233 E.0189
G1 X38.726 Y50.961 E.02006
G1 X38.361 Y50.533 E.02357
G1 X38.161 Y50.078 E.02082
G1 X38.084 Y49.584 E.02095
G1 X38.139 Y49.08 E.02124
G1 X38.247 Y48.759 E.01419
G1 X38.477 Y48.301 E.02147
G1 X38.469 Y48.281 E.0009
G1 E-3.5 F3600
;WIPE_START
G1 F7200
G1 X38.447 Y48.225 E-.02858
G1 X38.428 Y48.178 E-.02408
G1 X38.297 Y48.121 E-.06786
G1 X35.393 Y48.121 E-1.37948
;WIPE_END
G1 X36.355 Y39.615 F9000
G1 E5 F2400
;TYPE:Solid infill
;WIDTH:0.532175
G1 F1615
G1 X36.314 Y39.573 E.00323
G1 X36.257 Y39.588 E.00324
G1 X36.241 Y39.645 E.00325
G1 X36.283 Y39.687 E.00326
G1 X36.34 Y39.672 E.00324
;WIDTH:0.44
G1 X36.947 Y39.584 E.02713
G1 X36.252 Y40.278 E.04344
G1 X36.252 Y40.816 E.02379
G1 X37.484 Y39.584 E.07705
G1 X38.022 Y39.584 E.02379
G1 X36.252 Y41.353 E.11067
G1 X36.252 Y41.89 E.02375
G1 X38.559 Y39.584 E.14426
G1 X39.096 Y39.584 E.02375
G1 X36.252 Y42.427 E.17785
G1 X36.252 Y42.965 E.02379
G1 X39.633 Y39.584 E.21146
G1 X40.171 Y39.584 E.02379
G1 X36.252 Y43.502 E.24508
G1 X36.252 Y44.039 E.02375
G1 X40.708 Y39.584 E.27867
G1 X41.245 Y39.584 E.02375
G1 X36.252 Y44.577 E.31228
G1 X36.252 Y45.114 E.02375
G1 X41.782 Y39.584 E.34587
G1 X42.32 Y39.584 E.02379
G1 X36.252 Y45.651 E.37949
G1 X36.252 Y46.188 E.02375
G1 X42.857 Y39.584 E.41307
G1 X43.394 Y39.584 E.02375
G1 X36.252 Y46.726 E.44669
G1 X36.205 Y47.157 E.01917
;WIDTH:0.400089
G1 X36.134 Y47.137 E.00292
G1 X36.153 Y47.209 E.00295
G1 X36.194 Y47.198 E.00168
;WIDTH:0.44
G1 X36.436 Y47.079 E.01193
G1 X43.748 Y39.768 E.45729
G1 X43.866 Y39.525 E.01195
;WIDTH:0.400089
G1 X43.825 Y39.536 E.00168
G1 X43.806 Y39.465 E.00291
G1 X43.877 Y39.484 E.00291
G1 X43.748 Y40.305 F9000
;WIDTH:0.44
G1 F1615
G1 X36.974 Y47.079 E.42368
G1 X37.511 Y47.079 E.02375
